common/resources/fonts/svg/processing.svg

<?xml version="1.0" encoding="UTF-8" standalone="no"?>
<svg width="1024px" height="1024px" viewBox="0 0 1024 1024" version="1.1" xmlns="http://www.w3.org/2000/svg" xmlns:xlink="http://www.w3.org/1999/xlink">
    <!-- Generator: Sketch 3.7.1 (28215) - http://www.bohemiancoding.com/sketch -->
    <title>processing</title>
    <desc>Created with Sketch.</desc>
    <defs></defs>
    <g id="Page-1" stroke="none" stroke-width="1" fill="none" fill-rule="evenodd">
        <g id="processing" fill="#000000">
            <path d="M307.875,574.53125 L198.625,574.53125 C163.40625,574.53125 136.09375,546.5 136.09375,512 C136.09375,477.5 164.125,449.46875 198.625,449.46875 L307.875,449.46875 C343.09375,449.46875 370.40625,477.5 370.40625,512 C370.40625,546.5 343.09375,574.53125 307.875,574.53125 L307.875,574.53125 Z M323.6875,411.375 L245.34375,334.46875 C220.90625,310.03125 220.90625,271.21875 245.34375,246.78125 C270.5,221.625 309.3125,221.625 333.75,246.78125 L411.375,323.6875 C436.53125,348.125 436.53125,386.9375 411.375,411.375 C387.65625,437.25 348.125,437.25 323.6875,411.375 L323.6875,411.375 Z M334.46875,778.65625 C310.03125,803.09375 271.21875,803.09375 246.0625,778.65625 C221.625,753.5 221.625,714.6875 246.0625,690.25 L323.6875,612.625 C348.125,587.46875 386.9375,587.46875 411.375,612.625 C436.53125,637.0625 436.53125,675.875 411.375,700.3125 L334.46875,778.65625 L334.46875,778.65625 Z M574.53125,307.875 C574.53125,343.09375 546.5,370.40625 512,370.40625 C477.5,370.40625 449.46875,342.375 449.46875,307.875 L449.46875,198.625 C449.46875,163.40625 477.5,136.09375 512,136.09375 C546.5,136.09375 574.53125,164.125 574.53125,198.625 L574.53125,307.875 L574.53125,307.875 Z M574.53125,825.375 C574.53125,860.59375 546.5,887.90625 512,887.90625 C477.5,887.90625 449.46875,859.875 449.46875,825.375 L449.46875,716.125 C449.46875,680.90625 477.5,653.59375 512,653.59375 C546.5,653.59375 574.53125,681.625 574.53125,716.125 L574.53125,825.375 L574.53125,825.375 Z M700.3125,411.375 C675.875,436.53125 637.0625,436.53125 612.625,411.375 C587.46875,386.9375 587.46875,348.125 612.625,323.6875 L689.53125,246.0625 C713.96875,220.90625 752.78125,220.90625 777.21875,246.0625 C802.375,270.5 802.375,309.3125 777.21875,333.75 L700.3125,411.375 L700.3125,411.375 Z M689.53125,778.65625 L612.625,700.3125 C587.46875,675.875 587.46875,637.0625 612.625,612.625 C637.0625,587.46875 675.875,587.46875 700.3125,612.625 L777.9375,689.53125 C803.09375,713.96875 803.09375,752.78125 777.9375,777.9375 C753.5,803.09375 713.96875,803.09375 689.53125,778.65625 L689.53125,778.65625 Z M825.375,574.53125 L716.125,574.53125 C680.90625,574.53125 653.59375,546.5 653.59375,512 C653.59375,477.5 681.625,449.46875 716.125,449.46875 L825.375,449.46875 C860.59375,449.46875 887.90625,477.5 887.90625,512 C887.90625,546.5 860.59375,574.53125 825.375,574.53125 L825.375,574.53125 Z" id="Shape"></path>
        </g>
    </g>
</svg>

<svg width="1024" height="1024" viewBox="0 0 1024 1024">
    <path d="M307.875 574.531h-109.25c-35.219 0-62.531-28.031-62.531-62.531s28.031-62.531 62.531-62.531h109.25c35.219 0 62.531 28.031 62.531 62.531s-27.312 62.531-62.531 62.531zm15.813-163.156l-78.344-76.906c-24.438-24.438-24.438-63.25 0-87.688 25.156-25.156 63.969-25.156 88.406 0l77.625 76.906c25.156 24.438 25.156 63.25 0 87.688-23.719 25.875-63.25 25.875-87.688 0zm10.78 367.281c-24.437 24.438-63.25 24.438-88.406 0-24.437-25.156-24.437-63.968 0-88.406l77.625-77.625c24.438-25.156 63.25-25.156 87.688 0 25.156 24.438 25.156 63.25 0 87.688l-76.906 78.343zm240.063-470.781c0 35.219-28.031 62.531-62.531 62.531s-62.531-28.031-62.531-62.531v-109.25c0-35.219 28.031-62.531 62.531-62.531s62.531 28.031 62.531 62.531v109.25zm0 517.5c0 35.219-28.031 62.531-62.531 62.531s-62.531-28.031-62.531-62.531v-109.25c0-35.219 28.031-62.531 62.531-62.531s62.531 28.031 62.531 62.531v109.25zm125.782-414c-24.438 25.156-63.25 25.156-87.688 0-25.156-24.438-25.156-63.25 0-87.688l76.906-77.625c24.438-25.156 63.25-25.156 87.688 0 25.156 24.438 25.156 63.25 0 87.688l-76.907 77.625zM689.53 778.656l-76.906-78.343c-25.156-24.438-25.156-63.25 0-87.688 24.438-25.156 63.25-25.156 87.688 0l77.625 76.906c25.156 24.438 25.156 63.25 0 88.407-24.438 25.156-63.97 25.156-88.407.718zm135.844-204.125h-109.25c-35.219 0-62.531-28.031-62.531-62.531s28.031-62.531 62.531-62.531h109.25c35.219 0 62.531 28.031 62.531 62.531s-27.312 62.531-62.531 62.531z" fill-rule="evenodd"/>
</svg>
